X: 191
T: The Little Assembly
%O: 1795
%R: march, reel
Z: 2018 John Chambers <jc:trillian.mit.edu>
B: Wm. Campbell "10th Book of New and Favorite Country Dances, Strathspey Reels" 1795 p.19
F: https://archive.org/details/campbellstenthbo00camp
N: The repeat symbols are unusual (... :|| ... :||:); transcribed as both parts repeated.
M: 2/4
L: 1/8
K: A
% - - - - - - - - - - - - - - - - - - - - - - - - -
% Voice 1 arranged for small-scale proofreading
V: 1 staves=2
E |\
A>Ace | dde>c | AAce | e>cBc |\
A>Ace | ddec | A>Ace | dBA :|
|: z |\
Aaga | fdec | Aaga | f^de2 |\
Aaga | fdec | AA c(d/e/) | dBA :|
% - - - - - - - - - - - - - - - - - - - - - - - - -
% Voice 1 preserves the original staff layout
V: 2 clef=bass middle=d
z |\
Aaec | fg2a | Aaec | cAea | Aaec |
fg2a | Aaec | BeA :|\
|: z | Aaec | fg2a | Aaec |
cBea | Aaec | fg2a | Aaec | BeA :|
% - - - - - - - - - - - - - - - - - - - - - - - - -
%%begintext align
%% 1st & 2d Cu Poussett round
%% Lead down the middle up
%% again cast off & Allemande.
%%endtext
% - - - - - - - - - - - - - - - - - - - - - - - - -

%%sep 1 1 500
%%sep 1 1 500

